svg/fluentui-system-icons/ic_fluent_text_hanging_20_regular.svg

<svg width="20" height="20" viewBox="0 0 20 20" fill="none" xmlns="http://www.w3.org/2000/svg">
<path d="M16.5 4C16.7761 4 17 4.22386 17 4.5C17 4.77614 16.7761 5 16.5 5H3.5C3.22386 5 3 4.77614 3 4.5C3 4.22386 3.22386 4 3.5 4H16.5ZM12.5 14C12.7761 14 13 14.2239 13 14.5C13 14.7761 12.7761 15 12.5 15H3.5C3.22386 15 3 14.7761 3 14.5C3 14.2239 3.22386 14 3.5 14H12.5ZM13 9.5C13 9.22386 12.7761 9 12.5 9H3.5C3.22386 9 3 9.22386 3 9.5C3 9.77614 3.22386 10 3.5 10H12.5C12.7761 10 13 9.77614 13 9.5ZM15.1464 11.6464L16.6464 10.1464C16.8417 9.95118 17.1583 9.95118 17.3536 10.1464C17.5488 10.3417 17.5488 10.6583 17.3536 10.8536L16.2071 12L17.3536 13.1464C17.5488 13.3417 17.5488 13.6583 17.3536 13.8536C17.1583 14.0488 16.8417 14.0488 16.6464 13.8536L15.1464 12.3536C14.9512 12.1583 14.9512 11.8417 15.1464 11.6464Z" fill="#212121"/>
</svg>

<svg xmlns="http://www.w3.org/2000/svg" width="20" height="20"><path d="M16.5 4a.5.5 0 0 1 0 1h-13a.5.5 0 0 1 0-1h13Zm-4 10a.5.5 0 0 1 0 1h-9a.5.5 0 0 1 0-1h9Zm.5-4.5a.5.5 0 0 0-.5-.5h-9a.5.5 0 0 0 0 1h9a.5.5 0 0 0 .5-.5Zm2.146 2.146 1.5-1.5a.5.5 0 0 1 .708.708L16.207 12l1.147 1.146a.5.5 0 0 1-.708.708l-1.5-1.5a.5.5 0 0 1 0-.708Z"/></svg>
